X: 14360
T: Gallowglass, The
R: jig
M: 6/8
K: Aminor
A/B/|:cBA eBd|cAA A2B|cBc efg|dBG GAB|
cBA eBd|cea e2 d|cBA ^GAB|cAA A2:|
e|aga e=fd|cAA A2B|cBc efg|dBG G2 e|
aga e=fd|cBA e2 d|cBA ^GAB|cAA A2 e|
aga e=fd|cAA A2B|cBc e^fg|dBG G2 e|
aeg fdf|ece dBd|cBA ^GAB|cAA A2 e||

